X: 131
T: Xiu hebao
L: 1/16
M: 2/4
K: F
c2 c2 B2 f2 [I:setbarnb 1]| 
d2 c2 B2 G2 | 
c2 c d B2 G2 | 
F G E CF4 | 
G2c4B2 | 
c2 G FE4 | 
B2 B G F G E D | 
C2> B,2C4 | 
G2c4B2 | 
c2 G FE4 | 
B2 B G F G E D | 
C2> B,2C4 |]

@@@ Tune index: 9005
